16x16/actions/kr_diskusage.svg

<svg xmlns="http://www.w3.org/2000/svg" viewBox="0 0 16 16">
  <defs id="defs3051">
    <style type="text/css" id="current-color-scheme">
      .ColorScheme-Text {
        color:#5d656b;
      }
      </style>
  </defs>
 <path style="fill:currentColor;fill-opacity:1;stroke:none" 
     d="M 8 2 A 6.00001 6.00001 0 0 0 2 8 A 6.00001 6.00001 0 0 0 8 14 A 6.00001 6.00001 0 0 0 14 8 A 6.00001 6.00001 0 0 0 8 2 z M 8 3 A 5 5 0 0 1 13 8 A 5 5 0 0 1 8 13 A 5 5 0 0 1 3 8 A 5 5 0 0 1 8 3 z M 10 4 C 9.2517204 4 8.6086563 4.4121362 8.265625 5.0175781 A 3 3 0 0 0 8 5 A 3 3 0 0 0 5 8 A 3 3 0 0 0 8 11 A 3 3 0 0 0 11 8 A 3 3 0 0 0 10.986328 7.7324219 C 11.589674 7.3888285 12 6.7467144 12 6 C 12 4.892 11.108 4 10 4 z M 10 5 C 10.554 5 11 5.446 11 6 C 11 6.277 10.885828 6.5282344 10.705078 6.7089844 C 10.618438 6.7951552 10.515951 6.8642262 10.402344 6.9140625 A 1 1 0 0 1 10.380859 6.9238281 C 10.26355 6.9719305 10.135037 7 10 7 C 9.4473317 7 9.0021371 6.5560546 9 6.0039062 A 1 1 0 0 1 9 6 C 9 5.8628317 9.0285723 5.7301244 9.078125 5.6113281 A 1 1 0 0 1 9.078125 5.609375 C 9.1282357 5.4905055 9.203479 5.3829463 9.2929688 5.2929688 C 9.4737187 5.1122188 9.723 5 10 5 z M 8 6 C 8 7.108 8.892 8 10 8 A 2 2 0 0 1 8 10 A 2 2 0 0 1 6 8 A 2 2 0 0 1 8 6 z "
     class="ColorScheme-Text"
     />
</svg>

<svg xmlns="http://www.w3.org/2000/svg" viewBox="0 0 16 16"><path style="fill:currentColor;fill-opacity:1;stroke:none;color:#5d656b" d="M8 2a6 6 0 0 0-6 6 6 6 0 0 0 6 6 6 6 0 0 0 6-6 6 6 0 0 0-6-6zm0 1a5 5 0 0 1 5 5 5 5 0 0 1-5 5 5 5 0 0 1-5-5 5 5 0 0 1 5-5zm2 1a1.99 1.99 0 0 0-1.734 1.018A3 3 0 0 0 8 5a3 3 0 0 0-3 3 3 3 0 0 0 3 3 3 3 0 0 0 3-3 3 3 0 0 0-.014-.268A1.996 1.996 0 0 0 10 4zm0 1a.998.998 0 0 1 .402 1.914 1 1 0 0 1-.021.01.998.998 0 0 1-1.38-.92A1 1 0 0 1 8.999 6c0-.137.029-.27.078-.389a1 1 0 0 1 0-.002A1.008 1.008 0 0 1 10 5zM8 6c0 1.108.892 2 2 2a2 2 0 0 1-2 2 2 2 0 0 1-2-2 2 2 0 0 1 2-2z"/></svg>
